assets/svg/icon_badge_icelogo.svg

<svg width="24" height="24" viewBox="0 0 24 24" fill="none" xmlns="http://www.w3.org/2000/svg">
<rect x="1.5" y="1.5" width="21" height="21" rx="4" fill="#1D46EB"/>
<path d="M12 4.5L11.2988 9.17908L12 11.529L12.7012 9.17908L12 4.5Z" fill="white"/>
<path d="M12 19.5L12.7012 14.8209L12 12.471L11.2988 14.8209L12 19.5Z" fill="white"/>
<path d="M19.5 12L14.8209 11.2988L12.471 12L14.8209 12.7012L19.5 12Z" fill="white"/>
<path d="M4.5 12L9.17908 12.7012L11.529 12L9.17908 11.2988L4.5 12Z" fill="white"/>
<path d="M17.2711 6.6645L13.4838 9.50035L12.3312 11.6649L14.4815 10.486L17.2711 6.6645Z" fill="white"/>
<path d="M6.72888 17.3355L10.5162 14.4997L11.6688 12.3351L9.51845 13.514L6.72888 17.3355Z" fill="white"/>
<path d="M17.3351 17.2711L14.4993 13.4838L12.3348 12.3312L13.5136 14.4815L17.3351 17.2711Z" fill="white"/>
<path d="M6.66488 6.72888L9.50073 10.5162L11.6652 11.6688L10.4864 9.51845L6.66488 6.72888Z" fill="white"/>
</svg>

<svg xmlns="http://www.w3.org/2000/svg" width="24" height="24" fill="none"><rect width="21" height="21" x="1.5" y="1.5" fill="#1D46EB" rx="4"/><path fill="#fff" d="m12 4.5-.701 4.68.701 2.349.701-2.35zM12 19.5l.701-4.68L12 12.472l-.701 2.35zM19.5 12l-4.68-.701-2.349.701 2.35.701zM4.5 12l4.68.701L11.528 12l-2.35-.701zM17.271 6.665 13.484 9.5l-1.153 2.165 2.15-1.179zM6.729 17.336l3.787-2.836 1.153-2.165-2.15 1.179zM17.335 17.271 14.5 13.484l-2.164-1.153 1.179 2.15zM6.665 6.729 9.5 10.516l2.164 1.153-1.179-2.15z"/></svg>
